svg/source_branch_remove.svg

<svg xmlns="http://www.w3.org/2000/svg" viewBox="0 0 24 24"><path d="M13 14c-3.36 0-4.46 1.35-4.82 2.24A3.002 3.002 0 0 1 7 22c-1.66 0-3-1.34-3-3 0-1.31.83-2.42 2-2.83V7.83A2.99 2.99 0 0 1 4 5c0-1.66 1.34-3 3-3s3 1.34 3 3c0 1.31-.83 2.42-2 2.83v5.29c.88-.65 2.16-1.12 4-1.12 2.67 0 3.56-1.34 3.85-2.23A3.01 3.01 0 0 1 14 7c0-1.66 1.34-3 3-3s3 1.34 3 3c0 1.34-.88 2.5-2.09 2.86C17.65 11.29 16.68 14 13 14m-6 4c-.55 0-1 .45-1 1s.45 1 1 1 1-.45 1-1-.45-1-1-1M7 4c-.55 0-1 .45-1 1s.45 1 1 1 1-.45 1-1-.45-1-1-1m10 2c-.55 0-1 .45-1 1s.45 1 1 1 1-.45 1-1-.45-1-1-1m3.12 8.46L18 16.59l-2.12-2.12-1.41 1.41L16.59 18l-2.12 2.12 1.41 1.42L18 19.41l2.12 2.13 1.42-1.42L19.41 18l2.13-2.12z"/></svg>

<?xml version="1.0" encoding="UTF-8"?><!DOCTYPE svg PUBLIC "-//W3C//DTD SVG 1.1//EN" "http://www.w3.org/Graphics/SVG/1.1/DTD/svg11.dtd"><svg xmlns="http://www.w3.org/2000/svg" xmlns:xlink="http://www.w3.org/1999/xlink" version="1.1" id="mdi-source-branch-remove" width="24" height="24" viewBox="0 0 24 24"><path d="M13 14C9.64 14 8.54 15.35 8.18 16.24C9.25 16.7 10 17.76 10 19C10 20.66 8.66 22 7 22S4 20.66 4 19C4 17.69 4.83 16.58 6 16.17V7.83C4.83 7.42 4 6.31 4 5C4 3.34 5.34 2 7 2S10 3.34 10 5C10 6.31 9.17 7.42 8 7.83V13.12C8.88 12.47 10.16 12 12 12C14.67 12 15.56 10.66 15.85 9.77C14.77 9.32 14 8.25 14 7C14 5.34 15.34 4 17 4S20 5.34 20 7C20 8.34 19.12 9.5 17.91 9.86C17.65 11.29 16.68 14 13 14M7 18C6.45 18 6 18.45 6 19S6.45 20 7 20 8 19.55 8 19 7.55 18 7 18M7 4C6.45 4 6 4.45 6 5S6.45 6 7 6 8 5.55 8 5 7.55 4 7 4M17 6C16.45 6 16 6.45 16 7S16.45 8 17 8 18 7.55 18 7 17.55 6 17 6M20.12 14.46L18 16.59L15.88 14.47L14.47 15.88L16.59 18L14.47 20.12L15.88 21.54L18 19.41L20.12 21.54L21.54 20.12L19.41 18L21.54 15.88L20.12 14.46Z" /></svg>
